X: 6
T: Czasu gniewu i czasu swej zapalczywości
C: Mikołaj Gomółka
%%abc-version 2.0
%%abcx-abcm2ps-target-version 5.9.1 (29 Sep 2008)
%%abc-creator hum2abc beta
%%abcx-conversion-date 2021/10/04 07:59:10
%%abc-edited-by Anna Matuszewska
%%abcx-initial-encoding-date 2020-02-06
%%humdrum-veritas 1644418115
%%humdrum-veritas-data 1504282005
%%linebreak <none>
%%barnumbers 0
L: 1/4
M: C|
N: Derived from pl-wn--sd-xvi-qu-273--006_gomolka-mikolaj--czasu-gniewu-i-czasu-swej-zapalczywosci.krn
%%staves [1 2 3 4]
V: 1 clef=treble
V: 2
V: 3 clef=alto
V: 4
K: F
[V:1] z4z2G2 [|] 
[V:2] z4z2D2 [|] 
[V:3] z4z2G,2 [|] 
[V:4] z4z2G,2 [|] 
[V:1] B4c4 [|] 
[V:2] G4G4 [|] 
[V:3] D4_E4 [|] 
[V:4] G,4C,4 [|] 
[V:1] A2A2B2c2 [|] 
[V:2] F2F2G2E2 [|] 
[V:3] D2D2D2C2 [|] 
[V:4] D,2D,2G,2A,G, [|] 
[V:1] A2f2e2d4 [|] 
[V:2] A2A2B2G2x2 [|] 
[V:3] F2F2GFEDx2 [|] 
[V:4] F,E,D,2G,2B,2x2 [|] 
[V:1] x2^c2d2f2 [|] 
[V:2] A2>G2F2B2 [|] 
[V:3] E4D2D2 [|] 
[V:4] A,4D,2B,,2 [|] 
[V:1] d2d2=c3B [|] 
[V:2] B2B2A3G [|] 
[V:3] F2F2F4 [|] 
[V:4] B,,C,D,E,F,E,F,G, [|] 
[V:1] A2B2A2c2 [|] 
[V:2] FEFG2<A2G [|] 
[V:3] C2D2C2FE [|] 
[V:4] A,2D,E,F,G,A,2 [|] 
[V:1] B2A2>G2G4 [|] 
[V:2] F2>E2D2_E2x2 [|] 
[V:3] DCDCB,2CB,x2 [|] 
[V:4] B,2F,2G,2C,2x2 [|] 
[V:1] x2F2G2 [|] 
[V:2] D2>C2=B,2 [|] 
[V:3] A,G,A,2G,2 [|] 
[V:4] D,4G,2 [|] 
[V:1] d2 [I:setbarnb 10][|] 
[V:2] D2 [|] 
[V:3] G,2 [|] 
[V:4] B,2 [|] 
[V:1] B2B2^c4 [|] 
[V:2] D2D2A4 [|] 
[V:3] G2>F2E4 [|] 
[V:4] G,2G,2A,4 [|] 
[V:1] d2B2A2A2 [|] 
[V:2] ^F2G2E2F2 [|] 
[V:3] D2D2^C2D2 [|] 
[V:4] D,2G,2A,2D,2 [|] 
[V:1] B4B2A2 [|] 
[V:2] G2D2D2A,2 [|] 
[V:3] B,2>A,2B,CD2 [|] 
[V:4] G,6=F,2 [|] 
[V:1] G8 [|] 
[V:2] B,CD4^C2 [|] 
[V:3] B,4G,4 [|] 
[V:4] G,4_E,4 [|] 
[V:1] F2d2f2_e2 [|] 
[V:2] D2A2B2GA [|] 
[V:3] A,2F2B,2G2 [|] 
[V:4] D,2D2B,2C2 [|] 
[V:1] d2d2c4 [|] 
[V:2] B2B4A2 [|] 
[V:3] G2F2F3_E [|] 
[V:4] G,2B,2F,4 [|] 
[V:1] B2d2c2B2 [|] 
[V:2] B2B2F2F2 [|] 
[V:3] D2B,2C2D2 [|] 
[V:4] G,2B,2A,2B,2 [|] 
[V:1] e2>e2d2 [|] 
[V:2] G2>A2B2 [|] 
[V:3] _E2>E2F2 [|] 
[V:4] E,2>E,2B,2 [|] 
[V:1] d2 [|] 
[V:2] B2 [|] 
[V:3] G2 [|] 
[V:4] G,2 [|] 
[V:1] d2>e2f4 [I:setbarnb 19][|] 
[V:2] A4B3A [|] 
[V:3] F2>E2DCD2 [|] 
[V:4] D2>C2B,2B,,2 [|] 
[V:1] e2A2F2G2 [|] 
[V:2] G2F2F2_ED [|] 
[V:3] C2A,2D2CB, [|] 
[V:4] C,2D,4E,2 [|] 
[V:1] A2d2c2B2 [|] 
[V:2] C2G2E2D2 [|] 
[V:3] A,2B,2^C2D2 [|] 
[V:4] F,2G,2A,2B,2 [|] 
[V:1] B2A2A2d2 [|] 
[V:2] G2E2D2A2 [|] 
[V:3] D2C2F3E [|] 
[V:4] G,2A,2D,2D,2 [|] 
[V:1] B2cBAGF2 [|] 
[V:2] G2G2F2B,C [|] 
[V:3] D2EDC2FE [|] 
[V:4] G,2C,2F,E,D,C, [|] 
[V:1] B2AGABc2 [|] 
[V:2] DEF2F2C2 [|] 
[V:3] DCB,2A,2A,2 [|] 
[V:4] B,,C,D,E,F,G,A,2 [|] 
[V:1] B2A4G4 [|] 
[V:2] F2>E2D2E2x2 [|] 
[V:3] D2>C2B,2CB,x2 [|] 
[V:4] B,2F,2G,2C,2x2 [|] 
[V:1] x2F2G4 [|] 
[V:2] D4D4 [|] 
[V:3] A,G,A,2G,4 [|] 
[V:4] D,4G,4 [|] 


